Origami/24x24/apps/trine.svg

<svg width="24" height="24" version="1" xmlns="http://www.w3.org/2000/svg">
 <g transform="translate(2.0041616,1)">
  <path d="m1 1.5s-1.1688e-4 3.9999219 0.017578 4.0449219c-0.1710732 1.6542035 0.677909 1.8913004 2.1796875 1.984375 0.4252-0.0281 0.7781125-0.1094 1.1328125-0.4375 0.5622001-0.6762 0.669922-0.5917969 0.669922-0.5917969h-1c0.1179 0.4731-0.7268094 0.6852094-0.9746094 0.2871094-0.933-1.6405 2.1639585-3.0977603 4.9746094-1.7871094l-0.0742188 13.548828c-0.4645 1.058-0.7610812 1.478172-1.9257812 1.951172v1c2.4714-0.786 5-1 8-1v-1c-1.034-0.183-1.878-1.051-2-2v-12h4.175781c0.4957 0.011003 0.698319-0.15631 0.824219 1h2c-0.559-1.3089-0.933594-4-0.933594-4s-5.218528 0.027775-9.925781-0.2480469c-3.7056668-0.2171337-7.1403255-0.7518936-7.140625-0.7519531z" style="opacity:.2"/>
  <path d="m1 1s-1.1688e-4 3.9999219 0.017578 4.0449219c-0.1710732 1.6542035 0.677909 1.8913004 2.1796875 1.984375 0.4252-0.0281 0.7781125-0.1094 1.1328125-0.4375 0.5622001-0.6762 0.669922-0.5917969 0.669922-0.5917969h-1c0.1179 0.4731-0.7268094 0.6852094-0.9746094 0.2871094-0.933-1.6405 2.1639585-3.0977603 4.9746094-1.7871094l-0.0742188 13.548828c-0.4645 1.058-0.7610812 1.478172-1.9257812 1.951172v1c2.4714-0.786 5-1 8-1v-1c-1.034-0.183-1.878-1.051-2-2v-12h4.175781c0.4957 0.011003 0.698319-0.15631 0.824219 1h2c-0.559-1.3089-0.933594-4-0.933594-4s-5.218528 0.027775-9.925781-0.2480469c-3.7056668-0.2171337-7.1403255-0.7518936-7.140625-0.7519531z" style="fill:#fecd38"/>
  <path d="M 1,1 C 1,1 1.00192,1.3927887 1.00195,1.5 1.00527,1.5005292 4.4365872,2.0349149 8.140625,2.2519531 12.847878,2.527775 18.066406,2.5 18.066406,2.5 c 0,0 0.308742,2.108771 0.771485,3.5 L 19,6 C 18.441,4.6911 18.066406,2 18.066406,2 c 0,0 -5.218528,0.027775 -9.925781,-0.2480469 C 4.4349582,1.5348194 1.0002995,1.0000595 1,1 Z M 7.9980469,4.9980469 7.9257812,18.048828 C 7.4612812,19.106828 7.1647,19.527 6,20 l 0,0.5 C 7.1647,20.027 7.4612812,19.606828 7.9257812,18.548828 L 8,5 C 7.9992176,4.9996351 7.99883,4.99841 7.99805,4.99805 Z M 1.015625,5.1054688 C 0.9964458,5.3215866 0.9974158,5.5106018 1.013675,5.6796875 1.016995,5.6321905 1.012405,5.5949795 1.017585,5.5449219 1.015665,5.5400319 1.0171568,5.1935194 1.015635,5.1054688 Z m 1.875,0.8359374 C 2.824889,6.2078731 2.858839,6.4942612 3.0253906,6.7871094 3.1251996,6.9474567 3.3220917,6.9874816 3.5136719,6.9726562 3.5883809,6.9592732 3.6688308,6.9559332 3.7402344,6.9335942 3.9209675,6.8543025 4.0506006,6.7030462 4,6.5 l 0.4140625,0 C 4.8909466,5.9494743 5,6 5,6 L 4,6 C 4.1179,6.4731 3.2731906,6.6852094 3.0253906,6.2871094 2.9590167,6.1704036 2.9177621,6.0553267 2.890625,5.9414062 Z M 12,17 l 0,0.5 c 0.122,0.949 0.966,1.817 2,2 L 14,19 c -1.034,-0.183 -1.878,-1.051 -2,-2 z" style="fill:#ffffff;opacity:.2"/>
 </g>
</svg>

<svg xmlns="http://www.w3.org/2000/svg" width="24" height="24" version="1">
 <g transform="translate(2.0041616,1)">
  <path style="opacity:0.2" d="m 1,1.5 c 0,0 -1.1688e-4,3.9999219 0.017578,4.0449219 -0.1710732,1.6542035 0.677909,1.8913004 2.1796875,1.984375 0.4252,-0.0281 0.7781125,-0.1094 1.1328125,-0.4375 C 4.8922781,6.4155969 5,6.5 5,6.5 l -1,0 C 4.1179,6.9731 3.2731906,7.1852094 3.0253906,6.7871094 2.0923906,5.1466094 5.1893491,3.6893491 8,5 L 7.9257812,18.548828 C 7.4612812,19.606828 7.1647,20.027 6,20.5 l 0,1 c 2.4714,-0.786 5,-1 8,-1 l 0,-1 c -1.034,-0.183 -1.878,-1.051 -2,-2 l 0,-12 4.175781,0 C 16.671481,5.511003 16.8741,5.34369 17,6.5 l 2,0 c -0.559,-1.3089 -0.933594,-4 -0.933594,-4 0,0 -5.218528,0.027775 -9.925781,-0.2480469 C 4.4349582,2.0348194 1.0002995,1.5000595 1,1.5 Z"/>
  <path style="fill:#fecd38" d="m 1,1 c 0,0 -1.1688e-4,3.9999219 0.017578,4.0449219 -0.1710732,1.6542035 0.677909,1.8913004 2.1796875,1.984375 0.4252,-0.0281 0.7781125,-0.1094 1.1328125,-0.4375 C 4.8922781,5.9155969 5,6 5,6 L 4,6 C 4.1179,6.4731 3.2731906,6.6852094 3.0253906,6.2871094 2.0923906,4.6466094 5.1893491,3.1893491 8,4.5 L 7.9257812,18.048828 C 7.4612812,19.106828 7.1647,19.527 6,20 l 0,1 c 2.4714,-0.786 5,-1 8,-1 l 0,-1 C 12.966,18.817 12.122,17.949 12,17 L 12,5 16.175781,5 C 16.671481,5.011003 16.8741,4.84369 17,6 l 2,0 C 18.441,4.6911 18.066406,2 18.066406,2 c 0,0 -5.218528,0.027775 -9.925781,-0.2480469 C 4.4349582,1.5348194 1.0002995,1.0000595 1,1 Z"/>
  <path style="opacity:0.2;fill:#ffffff" d="M 1,1 C 1,1 1.00192,1.3927887 1.00195,1.5 1.00527,1.5005292 4.4365872,2.0349149 8.140625,2.2519531 12.847878,2.527775 18.066406,2.5 18.066406,2.5 c 0,0 0.308742,2.108771 0.771485,3.5 L 19,6 C 18.441,4.6911 18.066406,2 18.066406,2 c 0,0 -5.218528,0.027775 -9.925781,-0.2480469 C 4.4349582,1.5348194 1.0002995,1.0000595 1,1 Z M 7.9980469,4.9980469 7.9257812,18.048828 C 7.4612812,19.106828 7.1647,19.527 6,20 l 0,0.5 C 7.1647,20.027 7.4612812,19.606828 7.9257812,18.548828 L 8,5 C 7.9992176,4.9996351 7.99883,4.99841 7.99805,4.99805 Z M 1.015625,5.1054688 C 0.9964458,5.3215866 0.9974158,5.5106018 1.013675,5.6796875 1.016995,5.6321905 1.012405,5.5949795 1.017585,5.5449219 1.015665,5.5400319 1.0171568,5.1935194 1.015635,5.1054688 Z m 1.875,0.8359374 C 2.824889,6.2078731 2.858839,6.4942612 3.0253906,6.7871094 3.1251996,6.9474567 3.3220917,6.9874816 3.5136719,6.9726562 3.5883809,6.9592732 3.6688308,6.9559332 3.7402344,6.9335942 3.9209675,6.8543025 4.0506006,6.7030462 4,6.5 l 0.4140625,0 C 4.8909466,5.9494743 5,6 5,6 L 4,6 C 4.1179,6.4731 3.2731906,6.6852094 3.0253906,6.2871094 2.9590167,6.1704036 2.9177621,6.0553267 2.890625,5.9414062 Z M 12,17 l 0,0.5 c 0.122,0.949 0.966,1.817 2,2 L 14,19 c -1.034,-0.183 -1.878,-1.051 -2,-2 z"/>
 </g>
</svg>
